X: 1
P: Miss Wedderburn
C: Athole Colln., arr. T. Traub 11-25-1998
R: Reel
K: A
M: 4/4
L: 1/8
|: F|"A"E2 EF EFAc|"Bm"BABc "D"BAFA|"A"E2 EF "F#m"EFAc|"E"BABc "A"A2 A :|
c|"D"d2 fd "A"c2 ec|"Bm"BABc BAFA|"D"d2 fd "A"c2 ec|"E"BABc "A"A2 Ac |
"D"d2 fd "A"c2 ec|"Bm"BABc "D"BAFf|"A"efge "D"a2 gf|"E"ecBc "A"A2 A |]
